source/assets/images/icons/sector-ict.svg

<?xml version="1.0" encoding="utf-8"?>
<!-- Generated by IcoMoon.io -->
<!DOCTYPE svg PUBLIC "-//W3C//DTD SVG 1.1//EN" "http://www.w3.org/Graphics/SVG/1.1/DTD/svg11.dtd">
<svg version="1.1" xmlns="http://www.w3.org/2000/svg" xmlns:xlink="http://www.w3.org/1999/xlink" width="32" height="32" viewBox="0 0 32 32">
<path fill="#444444" d="M17.413 24.593c0-0.15-0.118-0.262-0.263-0.262h-2.639c-0.148 0-0.266 0.113-0.266 0.262s0.118 0.262 0.266 0.262h2.639c0.145 0 0.263-0.113 0.263-0.262v0zM6.334 19.598c0 0.277 0.246 0.525 0.527 0.525h17.937c0.281 0 0.529-0.248 0.529-0.525v-11.569c0-0.28-0.249-0.525-0.529-0.525h-17.937c-0.281 0-0.527 0.245-0.527 0.525v11.569zM4.222 19.598v-11.569c0-1.445 1.189-2.63 2.639-2.63h17.937c1.452 0 2.639 1.185 2.639 2.63v11.569c0 1.445-1.186 2.627-2.639 2.627h-17.937c-1.45 0-2.639-1.182-2.639-2.627v0zM31.658 23.278v1.577c0 0.871-1.186 1.577-2.639 1.577h-26.378c-1.452 0-2.641-0.707-2.641-1.577v-1.577h31.658z"></path>
</svg>

<svg xmlns="http://www.w3.org/2000/svg" width="32" height="32" viewBox="0 0 32 32"><path fill="#444" d="M17.413 24.593c0-.15-.118-.262-.263-.262h-2.64c-.147 0-.265.115-.265.264s.118.262.266.262h2.64c.146 0 .264-.113.264-.262zm-11.08-4.995c0 .277.247.525.528.525H24.8c.28 0 .53-.248.53-.525V8.028c0-.28-.25-.524-.53-.524H6.86c-.28 0-.526.245-.526.525v11.567zm-2.11 0V8.028c0-1.444 1.188-2.63 2.638-2.63H24.8c1.452 0 2.64 1.186 2.64 2.63V19.6c0 1.445-1.187 2.627-2.64 2.627H6.86c-1.45 0-2.638-1.182-2.638-2.627zm27.435 3.68v1.577c0 .87-1.186 1.577-2.64 1.577H2.642c-1.45 0-2.64-.707-2.64-1.577v-1.577H31.66z"/></svg>
